X:1
T:Dulcetta, 87.87
T:Dulcetta, 87.87
T:From Ludwig van Beethoven (1770-1827)
T:Public Domain Courtesy of the Cyber Hymnal™
C:From Ludwig van Beethoven (1770-1827)
Z:Public Domain
Z:Courtesy of the Cyber Hymnal™
%%score ( 1 2 ) ( 3 4 )
L:1/8
Q:1/4=130
M:3/4
K:G
V:1 treble 
V:2 treble 
V:3 bass 
V:4 bass 
V:1
 [GB]4 [FA]2 | G4 [=FG]2 | [Ec]4 [GB]2 | [EB]4 [EA]2 | [_EA]4 [DA]2 | [DB]4 cE | G3 F BA | G6 | %8
 [DB]4 [^DA]2 | [EG]4 [=FB]2 | [Ee]4 [Ed]2 | [Ed]4 [Ec]2 | [Fc]4 [DA]2 | [DB]4 cE | G2 F2 BA | %15
 G6 |] %16
V:2
 x6 | G4 x2 | x6 | x6 | x6 | x4 E2 | D4 F2 | G6 | x6 | x6 | x6 | x6 | x6 | x4 E2 | D4 F2 | G6 |] %16
V:3
 [G,D]4 [G,C]2 | [G,B,]4 [G,B,]2 | [G,C]4 [G,C]2 | [G,^C]4 [G,C]2 | [F,C]4 [F,C]2 | [G,B,]4 A,C | %6
 B,3 A, DC | [G,,B,]6 | G,4 [F,B,]2 | [E,B,]4 [D,G,]2 | (C2 G,2) [B,,^G,]2 | [A,,A,]4 [A,,A,]2 | %12
 (A,2 D2) [F,C]2 | [G,B,]4 A,C | B,2 A,2 DC | [G,,B,]6 |] %16
V:4
 x6 | x6 | x6 | x6 | x6 | x4 C,2 | D,4 D,2 | x6 | G,4 x2 | x6 | C,4 x2 | x6 | D,4 x2 | x4 C,2 | %14
 D,4 D,2 | x6 |] %16

